X:53
T: KIMMT A VOGERL GEFLOGEN
N: E1051
O: Europa, Mitteleuropa, Nieder - Oesterreich
R: Tanz - Lied
M: 3/4
L: 1/8
K: G
Bc | d2B2B2 | B2A2
AB | c2A2AA | B2z2
Bc | d2B2B2 | B2A2
AB | c2F2F2 | G4

